X:611
T: Am Ziel (306), S. 632f
N: T0498
O: Luxemburg
S: Singendes Volk, Esch-Alzette 1937 posth.]
N: Berg, hhh Mathias Theisen, 4.1.1934
R: geistliches Lied]
M: 4/4
L: 1/8
K: G
D2 | G2GG2AGB | A2z4
DD | A3dc2Ac | B2AcB2
Bc | d2B2d2Bd | cBA2z2
D2 | A3Bc2Ac | B2A2G2
D2 | G3GBAGB | A2z4
dc | BAGAB2A2 | G2z4

